images/bulb-icon.svg

<svg width="120" height="120" viewBox="0 0 120 120" fill="none" xmlns="http://www.w3.org/2000/svg">
<g id="bulb-icon" clip-path="url(#clip0_580_309)">
<g id="bulb">
<path id="Vector" d="M70.0934 75.0555C74.7439 73.8629 78.7836 71.2399 81.776 67.4701C85.4449 62.848 87.0715 57.0761 86.356 51.2177C85.6405 45.3604 82.6694 40.1456 77.9937 36.543C73.4636 33.0505 67.8161 31.4979 62.0916 32.1712C56.3674 32.8445 51.2339 35.665 47.6369 40.1129C44.5533 43.9261 42.8715 48.5256 42.7732 53.4141C42.6137 61.3502 39.8789 69.0556 35.0725 75.1108L29.8133 81.7364C27.4804 84.6753 27.9735 88.9642 30.9124 91.297L35.8701 95.2322C38.809 97.5651 43.0979 97.0718 45.4307 94.133L50.6895 87.5079C55.5493 81.3859 62.2445 77.0681 70.0934 75.0555ZM45.5771 53.4706C45.6628 49.2103 47.1291 45.2011 49.8175 41.8765C56.2762 33.8897 68.1478 32.4935 76.2812 38.7641C80.3592 41.9127 82.9484 46.4517 83.5719 51.5578C84.1958 56.6652 82.7777 61.6971 79.5793 65.7266C76.9706 69.0131 73.4495 71.2996 69.3966 72.339C61.1265 74.4598 54.0166 78.949 48.8016 85.3359L37.5936 76.4393C42.5779 69.9715 45.409 61.8367 45.5771 53.4706ZM32.6007 82.7356L33.3066 81.8465L43.5102 92.0419L43.2342 92.3895C43.0889 92.5726 42.9283 92.7359 42.7597 92.8863L32.6007 82.7356ZM35.0616 79.6355L35.8531 78.6384L47.0774 87.5479L45.2652 89.8309L35.0616 79.6355ZM32.6559 89.1005C31.4761 88.164 30.9681 86.6913 31.2006 85.3011L39.796 93.8896C39.0252 93.8319 38.2635 93.5514 37.6138 93.0357L32.6561 89.1004L32.6559 89.1005Z" fill="black"/>
<path id="Vector_2" d="M52.4713 46.9017C52.8418 46.2589 53.2697 45.636 53.7431 45.0508C54.2301 44.4486 54.1367 43.5658 53.5346 43.0787C52.9363 42.5952 52.0496 42.6851 51.5625 43.2872C50.997 43.9865 50.4852 44.7313 50.0414 45.5012C49.69 46.1108 49.8479 46.8742 50.383 47.299C50.4369 47.3417 50.4947 47.3811 50.5561 47.4165C51.2271 47.803 52.0845 47.5727 52.4713 46.9017Z" fill="black"/>
<path id="Vector_3" d="M45.6924 68.7152C45.806 68.8054 45.9359 68.8793 46.0795 68.9324C46.8061 69.2003 47.6124 68.8284 47.8802 68.1019C49.6012 63.4341 50.5246 58.5454 50.6244 53.5719C50.641 52.7498 50.7285 51.9296 50.8848 51.1339C51.034 50.3739 50.5388 49.6371 49.7788 49.4878C49.0189 49.3387 48.2819 49.8339 48.1327 50.5939C47.9454 51.5485 47.8403 52.5314 47.8205 53.5157C47.7269 58.1764 46.8617 62.7575 45.249 67.1317C45.034 67.7147 45.2308 68.3488 45.6924 68.7152Z" fill="black"/>
<path id="Vector_4" d="M73.1985 66.7919C72.832 66.1097 71.9816 65.8539 71.2996 66.2205C70.3102 66.7524 69.2481 67.1657 68.1429 67.449C67.3927 67.6413 66.9406 68.4055 67.1329 69.1556C67.2118 69.4637 67.3873 69.7214 67.6185 69.9049C67.9505 70.1684 68.3974 70.279 68.8396 70.1655C70.1641 69.8259 71.4384 69.3296 72.6272 68.6909C73.3094 68.3243 73.5653 67.4741 73.1985 66.7919Z" fill="black"/>
<path id="Vector_5" d="M73.3606 42.8885C79.4162 47.6953 80.4321 56.5326 75.6253 62.5883C75.352 62.9325 75.0608 63.2669 74.7598 63.582C74.225 64.1422 74.2453 65.0296 74.8053 65.5646C74.837 65.5948 74.8695 65.6232 74.9032 65.65C75.4645 66.0955 76.2832 66.0476 76.7879 65.5191C77.1476 65.1423 77.4956 64.7429 77.8219 64.3319C83.5901 57.065 82.371 46.4601 75.1042 40.6919C74.4976 40.2104 73.6155 40.3118 73.1341 40.9184C72.6526 41.5249 72.754 42.407 73.3606 42.8885Z" fill="black"/>
</g>
<g id="light-vector">
<path id="Vector_6" d="M79.7465 34.8433C80.3531 35.3248 81.2351 35.2234 81.7166 34.6168L86.5987 28.4663C87.0802 27.8597 86.9788 26.9776 86.3722 26.4961C85.7657 26.0147 84.8836 26.1161 84.4021 26.7226L79.52 32.8732C79.0385 33.4797 79.1399 34.3618 79.7465 34.8433Z" fill="black"/>
<path id="Vector_7" d="M66.9128 28.1936C66.8366 28.7077 67.0493 29.1976 67.4288 29.4989C67.6151 29.6467 67.8417 29.7493 68.0939 29.7867C68.8599 29.9003 69.5732 29.3716 69.6869 28.6056L70.8396 20.8411C70.9533 20.0748 70.4246 19.3617 69.6586 19.248C68.8925 19.1344 68.1792 19.6631 68.0655 20.4291L66.9128 28.1936Z" fill="black"/>
<path id="Vector_8" d="M78.2132 84.9761L75.3285 77.6757C75.0439 76.9552 74.2292 76.6022 73.509 76.887C72.7887 77.1715 72.4355 77.9861 72.7202 78.7065L75.605 86.0068C75.6986 86.2439 75.8497 86.4412 76.0361 86.5892C76.4157 86.8905 76.9414 86.9864 77.4244 86.7955C78.1447 86.511 78.4978 85.6963 78.2132 84.9761Z" fill="black"/>
<path id="Vector_9" d="M50.7691 23.1485L53.6538 30.4489C53.7474 30.686 53.8985 30.8833 54.085 31.0313C54.4645 31.3326 54.9902 31.4285 55.4733 31.2376C56.1935 30.9531 56.5467 30.1385 56.262 29.4181L53.3773 22.1178C53.0929 21.3974 52.2782 21.0443 51.5578 21.329C50.8376 21.6136 50.4845 22.428 50.7691 23.1485Z" fill="black"/>
<path id="Vector_10" d="M91.8309 73.9733L85.6803 69.0912C85.0738 68.6097 84.1917 68.7111 83.7102 69.3177C83.2288 69.9242 83.3302 70.8063 83.9367 71.2878L90.0872 76.1699C90.6938 76.6514 91.5759 76.55 92.0574 75.9434C92.5388 75.3368 92.4376 74.4549 91.8309 73.9733Z" fill="black"/>
<path id="Vector_11" d="M45.2722 38.8067C45.7537 38.2001 45.6523 37.318 45.0457 36.8365L38.8952 31.9544C38.2886 31.4729 37.4065 31.5744 36.9251 32.1809C36.4436 32.7875 36.545 33.6696 37.1516 34.151L43.3021 39.0332C43.9088 39.5148 44.7908 39.4132 45.2722 38.8067Z" fill="black"/>
<path id="Vector_12" d="M89.2828 58.9702C89.4691 59.118 89.6956 59.2205 89.9479 59.2579L97.7124 60.4106C98.4784 60.5243 99.1917 59.9956 99.3054 59.2295C99.4191 58.4635 98.8902 57.7501 98.1243 57.6365L90.3598 56.4838C89.5938 56.3701 88.8804 56.8989 88.7668 57.6649C88.6905 58.1787 88.9034 58.669 89.2828 58.9702Z" fill="black"/>
<path id="Vector_13" d="M39.0344 48.8667L31.2699 47.7139C30.5039 47.6002 29.7906 48.129 29.6769 48.895C29.6007 49.4088 29.8134 49.8989 30.193 50.2002C30.3792 50.3481 30.6058 50.4506 30.858 50.488L38.6225 51.6408C39.3885 51.7544 40.1019 51.2257 40.2155 50.4597C40.3295 49.6936 39.8002 48.9801 39.0344 48.8667Z" fill="black"/>
<path id="Vector_14" d="M87.316 45.0446C87.4097 45.2818 87.5608 45.479 87.7472 45.627C88.1267 45.9283 88.6524 46.0242 89.1355 45.8334L96.4358 42.9486C97.156 42.6641 97.5091 41.8494 97.2246 41.1292C96.9402 40.409 96.1254 40.0557 95.4051 40.3404L88.1047 43.2251C87.3845 43.5097 87.0314 44.3244 87.316 45.0446Z" fill="black"/>
</g>
</g>
<defs>
<clipPath id="clip0_580_309">
<rect width="85.2353" height="85.2353" fill="white" transform="translate(52.9922) rotate(38.4415)"/>
</clipPath>
</defs>
</svg>

<svg fill="none" xmlns="http://www.w3.org/2000/svg" viewBox="0 0 120 120"><g clip-path="url(#a)" fill="#000"><path d="M70.093 75.055a21.679 21.679 0 0 0 11.683-7.585c3.669-4.622 5.296-10.394 4.58-16.252a21.721 21.721 0 0 0-8.362-14.675c-4.53-3.492-10.178-5.045-15.902-4.372-5.725.673-10.858 3.494-14.455 7.942-3.084 3.813-4.766 8.413-4.864 13.301-.16 7.936-2.894 15.642-7.7 21.697l-5.26 6.625a6.813 6.813 0 0 0 1.1 9.561l4.957 3.935a6.813 6.813 0 0 0 9.56-1.099l5.26-6.625c4.86-6.122 11.555-10.44 19.403-12.453ZM45.577 53.471a18.887 18.887 0 0 1 4.24-11.594c6.46-7.987 18.33-9.384 26.464-3.113 4.078 3.149 6.667 7.688 7.29 12.794a18.933 18.933 0 0 1-3.992 14.169 18.896 18.896 0 0 1-10.182 6.612c-8.27 2.12-15.38 6.61-20.595 12.997l-11.208-8.897c4.984-6.467 7.815-14.602 7.983-22.968ZM32.601 82.736l.706-.89L43.51 92.043l-.276.347a3.996 3.996 0 0 1-.474.497L32.6 82.736Zm2.46-3.1.792-.998 11.224 8.91-1.812 2.283-10.203-10.196ZM32.657 89.1a4.002 4.002 0 0 1-1.455-3.8l8.595 8.589a3.976 3.976 0 0 1-2.182-.854L32.656 89.1Z"/><path d="M52.471 46.902c.37-.643.799-1.266 1.272-1.851a1.402 1.402 0 0 0-2.18-1.764c-.566.7-1.078 1.444-1.522 2.214a1.403 1.403 0 1 0 2.43 1.4ZM45.692 68.715a1.405 1.405 0 0 0 2.188-.613 44.488 44.488 0 0 0 2.744-14.53c.017-.822.104-1.642.26-2.438a1.402 1.402 0 1 0-2.751-.54 16.991 16.991 0 0 0-.313 2.922 41.692 41.692 0 0 1-2.571 13.616 1.403 1.403 0 0 0 .443 1.583ZM73.198 66.792a1.402 1.402 0 0 0-1.898-.572c-.99.532-2.052.946-3.157 1.229a1.402 1.402 0 1 0 .697 2.716 16.853 16.853 0 0 0 3.787-1.474 1.402 1.402 0 0 0 .572-1.9ZM73.36 42.889c6.056 4.806 7.072 13.644 2.265 19.7-.273.343-.564.678-.865.993a1.402 1.402 0 0 0 2.028 1.937c.36-.377.708-.776 1.034-1.187 5.768-7.267 4.549-17.872-2.718-23.64a1.402 1.402 0 1 0-1.743 2.197Z"/><g><path d="M79.746 34.843c.607.482 1.49.38 1.97-.226l4.883-6.15a1.402 1.402 0 0 0-2.197-1.744l-4.882 6.15a1.402 1.402 0 0 0 .227 1.97ZM66.913 28.194a1.402 1.402 0 1 0 2.774.412l1.153-7.765a1.402 1.402 0 1 0-2.775-.412l-1.152 7.765ZM78.213 84.976l-2.884-7.3a1.402 1.402 0 1 0-2.609 1.03l2.885 7.3a1.402 1.402 0 1 0 2.608-1.03ZM50.77 23.148l2.884 7.3a1.402 1.402 0 1 0 2.608-1.03l-2.885-7.3a1.402 1.402 0 1 0-2.608 1.03ZM91.83 73.973l-6.15-4.882a1.402 1.402 0 1 0-1.743 2.197l6.15 4.882a1.402 1.402 0 0 0 1.744-2.197ZM45.272 38.807a1.402 1.402 0 0 0-.226-1.97l-6.15-4.883a1.402 1.402 0 0 0-1.744 2.197l6.15 4.882c.607.482 1.489.38 1.97-.226ZM89.283 58.97c.186.148.413.25.665.288l7.764 1.153a1.402 1.402 0 1 0 .412-2.775l-7.764-1.152a1.402 1.402 0 0 0-1.077 2.486ZM39.034 48.867l-7.764-1.153a1.402 1.402 0 0 0-.412 2.774l7.765 1.153a1.402 1.402 0 0 0 .411-2.774ZM87.316 45.045a1.402 1.402 0 0 0 1.82.789l7.3-2.885a1.402 1.402 0 0 0-1.03-2.609l-7.301 2.885a1.402 1.402 0 0 0-.789 1.82Z"/></g></g><defs><clipPath id="a"><path fill="#fff" transform="rotate(38.441 26.496 75.998)" d="M0 0h85.235v85.235H0z"/></clipPath></defs></svg>
